actions/22/media-random-albums-amarok.svg

<svg xmlns="http://www.w3.org/2000/svg" viewBox="0 0 22 22">
  <defs id="defs3051">
 <style type="text/css" id="current-color-scheme">.ColorScheme-Text {color:#fcfcfc;}</style>
  </defs>
 <path 
    style="fill:currentColor;fill-opacity:1;stroke:none" 
    d="m 2,5 c 0,2 0,10 0,12 0,2 2,2 2,2 H 7 V 17 C 6.44772,17 6,17.44772 6,18 H 5 V 11 4 H 6 C 6,4.55228 6.44772,5 7,5 7.55228,5 8,4.55228 8,4 h 4 4 c 0,0.55228 0.44772,1 1,1 0.55228,0 1,-0.44772 1,-1 0,0 1,0 1,1 0,1 0,6 0,6 h 1 C 20,11 20,7 20,5 20,3 18,3 18,3 H 4 C 4,3 2,3 2,5 Z m 17,6 C 19,7.13401 15.86599,4 12,4 8.13401,4 5,7.13401 5,11 c 0.00206,1.854914 0.7493049,3.583962 2,4.867188 V 14.287109 C 6.3661508,13.324994 6.00133,12.191529 6,11 6,7.68629 8.68629,5 12,5 c 3.31371,0 6,2.68629 6,6 z M 3,5 C 3,4 4,4 4,4 V 18 C 4,18 3,18 3,17 3,16 3,6 3,5 Z m 14,6 v 1 h -1 -0.02344 C 14.327554,12 13,13.327554 13,14.976562 V 15 c 0,1.108 -0.892,2 -2,2 H 8 v 1 h 3 0.02344 C 12.672446,18 14,16.672446 14,15.023438 V 15 c 0,-1.108 0.892,-2 2,-2 h 1 v 1 l 2,-1.5 z m -9,1 v 1 h 3 c 0.398899,0 0.766762,0.118675 1.078125,0.318359 0.07572,-0.336861 0.209875,-0.649217 0.388672,-0.93164 C 12.037922,12.147813 11.551107,12 11.023438,12 H 11 Z m 9,4 v 1 h -1 c -0.398899,0 -0.766762,-0.118675 -1.078125,-0.318359 -0.07572,0.336861 -0.209875,0.649217 -0.388672,0.93164 C 14.962077,17.852187 15.44889,18 15.976562,18 H 16 17 v 1 l 2,-1.5 z"
    class="ColorScheme-Text"
    />  
</svg>

<svg xmlns="http://www.w3.org/2000/svg" viewBox="0 0 22 22">
  <defs id="defs3051">
    <style type="text/css" id="current-color-scheme">
      .ColorScheme-Text {
        color:#eff0f1;
      }
      </style>
  </defs>
 <path 
    style="fill:currentColor;fill-opacity:1;stroke:none" 
    d="M 2 3 L 2 19 L 3 19 L 7 19 L 7 17 C 6.44772 17 6 17.44772 6 18 L 5 18 L 5 11 L 5 4 L 6 4 C 6 4.55228 6.44772 5 7 5 C 7.55228 5 8 4.55228 8 4 L 12 4 L 16 4 C 16 4.55228 16.44772 5 17 5 C 17.55228 5 18 4.55228 18 4 L 19 4 L 19 11 L 20 11 L 20 3 L 3 3 L 2 3 z M 19 11 C 19 7.13401 15.86599 4 12 4 C 8.13401 4 5 7.13401 5 11 C 5.0020604 12.854914 5.7493049 14.583962 7 15.867188 L 7 14.287109 C 6.3661508 13.324994 6.00133 12.191529 6 11 C 6 7.68629 8.68629 5 12 5 C 15.31371 5 18 7.68629 18 11 L 19 11 z M 3 4 L 4 4 L 4 18 L 3 18 L 3 4 z M 17 11 L 17 12 L 16 12 L 15.976562 12 C 14.327554 12 13 13.327554 13 14.976562 L 13 15 C 13 16.108 12.108 17 11 17 L 8 17 L 8 18 L 11 18 L 11.023438 18 C 12.672446 18 14 16.672446 14 15.023438 L 14 15 C 14 13.892 14.892 13 16 13 L 17 13 L 17 14 L 19 12.5 L 17 11 z M 8 12 L 8 13 L 11 13 C 11.398899 13 11.766762 13.118675 12.078125 13.318359 C 12.153845 12.981498 12.288 12.669142 12.466797 12.386719 C 12.037922 12.147813 11.551107 12 11.023438 12 L 11 12 L 8 12 z M 17 16 L 17 17 L 16 17 C 15.601101 17 15.233238 16.881325 14.921875 16.681641 C 14.846152 17.018502 14.712 17.330858 14.533203 17.613281 C 14.962077 17.852187 15.44889 18 15.976562 18 L 16 18 L 17 18 L 17 19 L 19 17.5 L 17 16 z "
    class="ColorScheme-Text"
    />  
</svg>
